!!!OTL: SCHLAF KINDKEN SCHLAFE
!!!ARE: Europa, Mitteleuropa, Deutschland, Brandenburg
!!!SCT: E1808
!!!YEM: Copyright 1995, estate of Helmut Schaffrath.
**kern
*ICvox
*Ivox
*M2/4
*k[b-]
*F:
=1
{4a
8g
8g
=2
4f
8c}
{8c
=3
8a
8a
8g
8g
=4
4f
8c}
{8c
=5
8f
8f
8g
8g
=6
4a
8g}
{8c
=7
8f
8f
8g
8g
=8
8a
8a
8g}
{8cc
=9
8a
8f
8g
8e
=10
4f
8f
8r}
==
!!!AGN: Kinder -, Wiegen -, Schlaf - Lied
!!!ONB: ESAC (Essen Associative Code) Database: ERK3
!!!AMT: simple duple
!!!AIN: vox
!!!EED: Helmut Schaffrath
!!!EEV: 1.0
*-
